material/.icons/material/play-box.svg

<svg xmlns="http://www.w3.org/2000/svg" viewBox="0 0 24 24"><path d="M19 3H5c-1.11 0-2 .89-2 2v14c0 1.1.9 2 2 2h14c1.1 0 2-.9 2-2V5a2 2 0 00-2-2m-9 13V8l5 4"/></svg>

<?xml version="1.0" encoding="UTF-8"?><!DOCTYPE svg PUBLIC "-//W3C//DTD SVG 1.1//EN" "http://www.w3.org/Graphics/SVG/1.1/DTD/svg11.dtd"><svg xmlns="http://www.w3.org/2000/svg" xmlns:xlink="http://www.w3.org/1999/xlink" version="1.1" id="mdi-play-box" width="24" height="24" viewBox="0 0 24 24"><path d="M19 3H5C3.89 3 3 3.89 3 5V19C3 20.1 3.9 21 5 21H19C20.1 21 21 20.1 21 19V5C21 3.89 20.1 3 19 3M10 16V8L15 12" /></svg>
